X:1
T:I Will Love Jesus
T:I Will Love Jesus
T:Lucy Young Bliss
T:Sophia Taylor  Griswold, 1874
T:Public Domain Courtesy of the Cyber Hymnal™
T:Public Domain Courtesy of the Cyber Hymnal™
C:Lucy Young Bliss
Z:Public Domain
Z:Courtesy of the Cyber Hymnal™
%%score 1 ( 2 3 )
L:1/8
Q:1/4=105
M:6/8
K:G
V:1 treble 
V:2 bass 
V:3 bass 
V:1
 [B,D][B,D][B,D] [CE][B,D][B,D] | [DB][CA][B,G] [CA]3 | [CA][CA][CA] [Ec][DB][CA] | %3
w: 1.~I will love Je- sus and|serve Him, for see|How the dear Sav- ior has|
w: 2.~I will love Je- sus and|learn of His will,|Trust- ing Him ev- er, through|
w: 3.~I will love Je- sus, and,|sure of His love,|I shall be safe as the|
 [CA][CE][CF] [B,G]3 | [B,D][B,D][B,D] [CE][B,D][B,D] | [DB][CA][B,G] [CA]3 | %6
w: watched o- ver me!|How He has guard- ed and|guid- ed my way!|
w: good and through ill;|Seek- ing His bless- ing, wher-|e’er I may be,|
w: bless- èd a- bove.|Oh! When He calls me to|glo- ry on high,|
 [CA][CA][CA] [Ec][DB][CA] | [CA][CE][CF] [B,G]3 ||"^Refrain" [GB][GB][GB] [Gd]2 [GB] | %9
w: How He has kept me, by|night and by day.||
w: Know- ing He cares for the|spar- rows and me.|Him will I love, and|
w: How we will praise Him, the|an- gels and I!||
 [GB][GA][GB] [Gc]3 | [DF]2 [DF] [DF][DE][DF] | [DG]2 [EA] [GB]3 | [GB][GB][GB] [Gd]2 [GB] | %13
w: ||||
w: His will I be,|All be- cause He has|first loved me;|Him will I love, and|
w: ||||
 [GB][GA][GB] [Gc]3 | [DF]2 [DF] [DF][DE][DF] | [DG]6 |] %16
w: |||
w: His will I be,|All be- cause He loves|me.|
w: |||
V:2
 G,G,G, G,G,G, | G,G,G, [D,F,]3 | [D,F,][D,F,][D,F,] [D,F,][D,F,][D,F,] | %3
 [D,F,][D,G,][D,A,] [A,,G,]3 | G,G,G, G,G,G, | G,G,G, [D,F,]3 | %6
 [D,F,][D,F,][D,F,] [D,F,][D,F,][D,F,] | [D,F,][D,G,][D,A,] [A,,G,]3 || %8
 [G,D][G,D][G,D] [G,B,]2 [G,D] | [C,E][C,E][C,E] [C,E]3 | [D,C]2 [D,C] [D,C][D,C][D,C] | %11
 [G,B,]2 [G,C] [G,D]3 | [G,D][G,D][G,D] [G,B,]2 [G,D] | [C,E][C,E][C,E] [C,E]3 | %14
 [D,C]2 [D,C] [D,C][D,C][D,C] | [G,,B,]6 |] %16
V:3
 G,G,G, G,G,G, | G,G,G, x3 | x6 | x6 | G,G,G, G,G,G, | G,G,G, x3 | x6 | x6 || x6 | x6 | x6 | x6 | %12
 x6 | x6 | x6 | x6 |] %16

